actions/22x22-dark/document-edit.svg

<svg viewBox="0 0 22 22" xmlns="http://www.w3.org/2000/svg"><path d="m16.255859 3c-.144224-.0000003-.282592.0579842-.384765.1601562l-1.228516 1.2265626 2.970703 2.96875 1.226563-1.2246094c.212775-.212841.210787-.5586436-.001953-.7714844l-2.195313-2.1972656c-.102239-.1021729-.242527-.1621094-.386719-.1621094zm-1.998047 1.7714844-.423828.4277344 2.96875 2.96875.425782-.4277344zm-.808593.8125-.427735.4257812 2.96875 2.96875.427735-.4257812zm-.8125.8105468-8.3652346 8.3652348c-.059597.05966-.1057911.133198-.1328125.21289l-1.109375 3.308594c-.0654137.196374-.0136344.410227.1328125.556641.1036758.103905.2426327.162103.3847656.162109.057969-.000033.1169103-.008204.1738281-.027344l3.3066407-1.111328c.080248-.02712.1533907-.071228.2128906-.130859l8.3652346-8.3652346z" fill="#f2f2f2"/></svg>

<svg xmlns="http://www.w3.org/2000/svg" viewBox="0 0 22 22">
  <defs id="defs3051">
    <style type="text/css" id="current-color-scheme">
      .ColorScheme-Text {
        color:#f2f2f2
      }
      </style>
  </defs>
  <path
     style="fill:currentColor;fill-opacity:1;stroke:none"
	 class="ColorScheme-Text"
     d="M 16.255859 3 C 16.111635 2.9999997 15.973267 3.0579842 15.871094 3.1601562 L 14.642578 4.3867188 L 17.613281 7.3554688 L 18.839844 6.1308594 C 19.052619 5.9180184 19.050631 5.5722158 18.837891 5.359375 L 16.642578 3.1621094 C 16.540339 3.0599365 16.400051 3 16.255859 3 z M 14.257812 4.7714844 L 13.833984 5.1992188 L 16.802734 8.1679688 L 17.228516 7.7402344 L 14.257812 4.7714844 z M 13.449219 5.5839844 L 13.021484 6.0097656 L 15.990234 8.9785156 L 16.417969 8.5527344 L 13.449219 5.5839844 z M 12.636719 6.3945312 L 4.2714844 14.759766 C 4.2118874 14.819426 4.1656933 14.892964 4.1386719 14.972656 L 3.0292969 18.28125 C 2.9638832 18.477624 3.0156625 18.691477 3.1621094 18.837891 C 3.2657852 18.941796 3.4047421 18.999994 3.546875 19 C 3.604844 18.999967 3.6637853 18.991796 3.7207031 18.972656 L 7.0273438 17.861328 C 7.1075918 17.834208 7.1807345 17.7901 7.2402344 17.730469 L 15.605469 9.3652344 L 12.636719 6.3945312 z "
     id="path4229" />
</svg>
